X:108
T:Le chant des livrées
R:Chanson
O:France
B:Le livre des Chansons (Henri Davenson) n°108
Z:<anamnese@caramail.com> -- http://anamnese.fr.st
M:2/4
L:1/8
Q:1/4=135
K:G
B2 B B | {Bc}B3 A | G4 | A2 A A | B3 A | GF E2-|E2 z2 |
 E ^D E F | G2 F E | G2 A2 | B2-B z | B A B c | B A G F |
G2 F2 | E4 || B2 B c | B3 A | G4 | A2 A A | B3 A | G-F E2-|E zz B, |
E ^D E F | G F G E | G2 A2 | B4 | B A B c | B-A G F | G2 F2 | E4 ||
W:Ouvrez la porte, Ouvrez, Françoise ma mignonne
W:J'ons un biau bouquet à vous présenter
W:Hélas ma mignonne laissez-nous entrer
W:- Mon père est en chagrin ma mère en grand tristesse
W:Et moi je suis une fille de trop grand merci
W:Pour ouvrir la porte à cette heure-ci./.../


